X:58
T:Jesu, Joy of Man's Desiring
C:by J. S. Bach
M:9/8
L:1/8
Q:1/8=180
K:G
GA Bdc ced|dgf gdB GAB|cde dcB ABG|FGA DFA cBA|BGA Bdc ced|
dgf gdB GAB|Adc BAG DGF|GBd gdB GBd|g8z |
|:z8z|z8z|zDE FAG AcB|cAF DFA cBA|
BGA Bdc ced|dgf gdB GAB|Edc BAG DGF|GBA Bdc ced|
dgf gdB GAB|cde dcB ABG|FGA DFA cBA|BGA Bdc ced|
dgf gdB GAB|Adc BAG DGF|1 G8z:|2 GBd gdB GB^c|
|dDE FA^G GBA|AcB cAE CDE|=Fdc dB^G E^FG|AcB ced d=fe|
ea^g aec ABc|=fed cBA EA^G|Ace a6|zcd eg=f g_ba|
ac'b c'a=f def|eg=f gec GA_B|AcB cA=F DEF|ECD EGF GBA|
BGA Bdc ced|dgf gdB GAB|cde dcB ABG|FDE FAG AcB|
cAF DFA cBA|BGA Bdc ced|dgf gdB GAB|Edc BAG DGF|
GBd gdB GBd|=fdB GBd ecA|FAc dBG EGB|cAF DFA cBA|
BGA Bdc ced|dgf gdB GAB|cde dcB ABG|FGA DFA cBA|
BGA Bdc ced|dgf gdB GAB|Edc BAG DGF|G8z|
